svg/bonesXor.svg

<?xml version="1.0" encoding="UTF-8" standalone="no"?>
<!-- Created with Inkscape (http://www.inkscape.org/) -->

<svg
   width="32"
   height="32"
   viewBox="0 0 8.4666666 8.4666668"
   version="1.1"
   id="svg5"
   inkscape:version="1.2 (dc2aeda, 2022-05-15)"
   sodipodi:docname="bonesXor.svg"
   xmlns:inkscape="http://www.inkscape.org/namespaces/inkscape"
   xmlns:sodipodi="http://sodipodi.sourceforge.net/DTD/sodipodi-0.dtd"
   xmlns="http://www.w3.org/2000/svg"
   xmlns:svg="http://www.w3.org/2000/svg"
   xmlns:rdf="http://www.w3.org/1999/02/22-rdf-syntax-ns#"
   xmlns:cc="http://creativecommons.org/ns#">
  <sodipodi:namedview
     id="namedview7"
     pagecolor="#ffffff"
     bordercolor="#111111"
     borderopacity="1"
     inkscape:pageshadow="0"
     inkscape:pageopacity="0"
     inkscape:pagecheckerboard="1"
     inkscape:document-units="mm"
     showgrid="true"
     width="32mm"
     units="px"
     objecttolerance="10000"
     guidetolerance="10000"
     inkscape:snap-perpendicular="true"
     inkscape:snap-tangential="true"
     inkscape:zoom="34.90625"
     inkscape:cx="7.2479857"
     inkscape:cy="13.880036"
     inkscape:window-width="2560"
     inkscape:window-height="1301"
     inkscape:window-x="0"
     inkscape:window-y="25"
     inkscape:window-maximized="0"
     inkscape:current-layer="layer1"
     inkscape:showpageshadow="0"
     inkscape:deskcolor="#d1d1d1">
    <inkscape:grid
       type="xygrid"
       id="grid9"
       units="px"
       empspacing="4" />
  </sodipodi:namedview>
  <defs
     id="defs2" />
  <g
     inkscape:label="Layer 1"
     inkscape:groupmode="layer"
     id="layer1">
    <path
       id="path12715"
       style="fill:#000000;fill-opacity:1;stroke:none;stroke-width:0"
       d="M 2.9104167 1.0583333 A 0.79374999 0.79374999 0 0 0 2.1166667 1.8520833 A 0.79374999 0.79374999 0 0 0 2.1941813 2.1941813 A 0.79374999 0.79374999 0 0 0 1.8520833 2.1166667 A 0.79374999 0.79374999 0 0 0 1.0583333 2.9104167 A 0.79374999 0.79374999 0 0 0 1.8520833 3.7041667 A 0.79374999 0.79374999 0 0 0 2.4132894 3.4716227 L 3.175 4.2333333 L 4.2333333 3.175 L 3.4716227 2.4132894 A 0.79374999 0.79374999 0 0 0 3.7041667 1.8520833 A 0.79374999 0.79374999 0 0 0 2.9104167 1.0583333 z M 4.2333333 3.175 L 5.2916667 4.2333333 L 6.0533773 3.4716227 A 0.79374999 0.79374999 0 0 0 6.6145833 3.7041667 A 0.79374999 0.79374999 0 0 0 7.4083333 2.9104167 A 0.79374999 0.79374999 0 0 0 6.6145833 2.1166667 A 0.79374999 0.79374999 0 0 0 6.2724854 2.1941813 A 0.79374999 0.79374999 0 0 0 6.35 1.8520833 A 0.79374999 0.79374999 0 0 0 5.55625 1.0583333 A 0.79374999 0.79374999 0 0 0 4.7625 1.8520833 A 0.79374999 0.79374999 0 0 0 4.9950439 2.4132894 L 4.2333333 3.175 z M 5.2916667 4.2333333 L 4.2333333 5.2916667 L 4.9950439 6.0533773 A 0.79374999 0.79374999 0 0 0 4.7625 6.6145833 A 0.79374999 0.79374999 0 0 0 5.55625 7.4083333 A 0.79374999 0.79374999 0 0 0 6.35 6.6145833 A 0.79374999 0.79374999 0 0 0 6.2724854 6.2724854 A 0.79374999 0.79374999 0 0 0 6.6145833 6.35 A 0.79374999 0.79374999 0 0 0 7.4083333 5.55625 A 0.79374999 0.79374999 0 0 0 6.6145833 4.7625 A 0.79374999 0.79374999 0 0 0 6.0533773 4.9950439 L 5.2916667 4.2333333 z M 4.2333333 5.2916667 L 3.175 4.2333333 L 2.4132894 4.9950439 A 0.79374999 0.79374999 0 0 0 1.8520833 4.7625 A 0.79374999 0.79374999 0 0 0 1.0583333 5.55625 A 0.79374999 0.79374999 0 0 0 1.8520833 6.35 A 0.79374999 0.79374999 0 0 0 2.1941813 6.2724854 A 0.79374999 0.79374999 0 0 0 2.1166667 6.6145833 A 0.79374999 0.79374999 0 0 0 2.9104167 7.4083333 A 0.79374999 0.79374999 0 0 0 3.7041667 6.6145833 A 0.79374999 0.79374999 0 0 0 3.4716227 6.0533773 L 4.2333333 5.2916667 z " />
  </g>
  <metadata
     id="metadata33">
    <rdf:RDF>
      <cc:Work
         rdf:about="">
        <cc:license
           rdf:resource="http://creativecommons.org/licenses/by-sa/4.0/" />
      </cc:Work>
      <cc:License
         rdf:about="http://creativecommons.org/licenses/by-sa/4.0/">
        <cc:permits
           rdf:resource="http://creativecommons.org/ns#Reproduction" />
        <cc:permits
           rdf:resource="http://creativecommons.org/ns#Distribution" />
        <cc:requires
           rdf:resource="http://creativecommons.org/ns#Notice" />
        <cc:requires
           rdf:resource="http://creativecommons.org/ns#Attribution" />
        <cc:permits
           rdf:resource="http://creativecommons.org/ns#DerivativeWorks" />
        <cc:requires
           rdf:resource="http://creativecommons.org/ns#ShareAlike" />
      </cc:License>
    </rdf:RDF>
  </metadata>
</svg>

<svg width="32" height="32" viewBox="0 0 8.467 8.467" xmlns="http://www.w3.org/2000/svg"><path style="fill:#000;fill-opacity:1;stroke:none;stroke-width:0" d="M2.91 1.058a.794.794 0 0 0-.793.794.794.794 0 0 0 .077.342.794.794 0 0 0-.342-.077.794.794 0 0 0-.794.793.794.794 0 0 0 .794.794.794.794 0 0 0 .561-.232l.762.761 1.058-1.058-.761-.762a.794.794 0 0 0 .232-.56.794.794 0 0 0-.794-.795zm1.323 2.117 1.059 1.058.761-.761a.794.794 0 0 0 .562.232.794.794 0 0 0 .793-.794.794.794 0 0 0-.793-.793.794.794 0 0 0-.343.077.794.794 0 0 0 .078-.342.794.794 0 0 0-.794-.794.794.794 0 0 0-.793.794.794.794 0 0 0 .232.561l-.762.762zm1.059 1.058L4.233 5.292l.762.761a.794.794 0 0 0-.232.562.794.794 0 0 0 .793.793.794.794 0 0 0 .794-.793.794.794 0 0 0-.078-.343.794.794 0 0 0 .343.078.794.794 0 0 0 .793-.794.794.794 0 0 0-.793-.793.794.794 0 0 0-.562.232l-.761-.762zM4.233 5.292 3.175 4.233l-.762.762a.794.794 0 0 0-.56-.232.794.794 0 0 0-.795.793.794.794 0 0 0 .794.794.794.794 0 0 0 .342-.078.794.794 0 0 0-.077.343.794.794 0 0 0 .793.793.794.794 0 0 0 .794-.793.794.794 0 0 0-.232-.562l.761-.761z"/></svg>
